packages/gestalt-icons-android/vr-theme/ic_vr_arrow-nested_gestalt.svg

<svg width="24" height="24" viewBox="0 0 24 24" fill="none" xmlns="http://www.w3.org/2000/svg">
<path fill-rule="evenodd" clip-rule="evenodd" d="M3 4L3 10C3 11.6569 4.34315 13 6 13H19.5858L15.2929 8.70711L16.7071 7.2929L23.4142 14L16.7071 20.7071L15.2929 19.2929L19.5858 15H6C3.23858 15 1 12.7614 1 10L1 4H3Z" fill="black"/>
</svg>

<svg xmlns="http://www.w3.org/2000/svg" width="24" height="24"><path d="M3 4v6a3 3 0 0 0 3 3h13.59l-4.3-4.3 1.42-1.4 6.7 6.7-6.7 6.7-1.42-1.4 4.3-4.3H6a5 5 0 0 1-5-5V4z"/></svg>
